!!!COM: Palestrina, Giovanni Perluigi da
!!!OPR: Missa In semidupl. maj. (I)
!!!OMD: Sanctus
!!!OTL: Pleni
**kern	**kern	**kern	**kern
*Ibass	*Itenor	*Itenor	*Icalto
!Bassus	!Tenor 2	!Tenor 1	!Altus
*clefF4	*clefGv2	*clefGv2	*clefG2
*k[b-]	*k[b-]	*k[b-]	*k[b-]
*F:ion	*F:ion	*F:ion	*F:ion
*M4/2	*M4/2	*M4/2	*M4/2
=42	=42	=42	=42
1C	1r	0r	0r
1D	1F	.	.
=43	=43	=43	=43
1F	1A	0r	0r
2F	1c	.	.
[2F	.	.	.
=44	=44	=44	=44
2F]	1c	0r	0r
4E	.	.	.
4D	.	.	.
2E	[1c	.	.
4C	.	.	.
4D	.	.	.
=45	=45	=45	=45
4E	2c]	0r	0r
4F	.	.	.
2.G	2B-	.	.
.	1A	.	.
4F	.	.	.
[2F	.	.	.
=46	=46	=46	=46
2F]	1G	0r	1r
2E	.	.	.
1F	1A	.	1c
=47	=47	=47	=47
1BB-	1B-	1F	1d
1r	1F	1A	1f
=48	=48	=48	=48
1FF	0A	1c	2f
.	.	.	1f
1AA	.	1c	.
.	.	.	4e
.	.	.	4d
=49	=49	=49	=49
2.C	1G	1.c	2e
.	.	.	4c
4BB-	.	.	4d
2AA	2A	.	4e
.	.	.	4f
2GG	[2d	2B-	[2g
=50	=50	=50	=50
2D	2d]	1A	4g]
.	.	.	4f
2F	4c	.	1f
.	4B-	.	.
1C	1c	1G	.
.	.	.	2e
=51	=51	=51	=51
2r	4F	0c	2f
.	4G	.	.
2.FF	4A	.	4F
.	4B-	.	4G
.	2c	.	4A
4GG	.	.	4B-
4AA	[2C	.	4c
4BB-	.	.	4d
=52	=52	=52	=52
2.C	4C]	0c	4e
.	4D	.	4f
.	4E	.	1g
4D	4F	.	.
2E	2G	.	.
2F	[2A	.	2f
=53	=53	=53	=53
1A	4A]	1c	2.e
.	4B-	.	.
.	1c	.	.
.	.	.	4f
1G	.	1d	1g
.	2B	.	.
=54	=54	=54	=54
1C	1c	2.c	2e
.	.	.	1g
.	.	4B-	.
1r	2r	1A	.
.	[2c	.	2f
=55	=55	=55	=55
0r	2c]	1G	2e
.	2B-	.	2d
.	1A	2r	2e
.	.	[2c	4d
.	.	.	4c
=56	=56	=56	=56
1r	2.G	2c]	1d
.	.	2B-	.
.	4D	.	.
2r	1F	1A	[1c
[2F	.	.	.
=57	=57	=57	=57
2F]	1C	1G	1c]
2E-	.	.	.
2.D	1r	1A	2r
.	.	.	[2f
4C	.	.	.
=58	=58	=58	=58
2BB-	2r	1G	2f]
2C	2c	.	2e-
4D	2B-	[1F	1d
4C	.	.	.
4D	4A	.	.
4E	4G	.	.
=59	=59	=59	=59
4F	4A	1F]	1c
4G	4B-	.	.
2A	1c	.	.
2F	.	1r	1d
2G	[2B-	.	.
=60	=60	=60	=60
2E	2B-]	1r	1c
2F	2A	.	.
1BB-	2B-	2r	1B-
.	[2B-	[2d	.
=61	=61	=61	=61
1F	2B-]	2d]	2r
.	2A	2c	1f
1r	1G	[1B-	.
.	.	.	2e-
=62	=62	=62	=62
0r	1F	2B-]	2d
.	.	2A	2.c
.	1G	1B-	.
.	.	.	4B-
.	.	.	[2B-
=63	=63	=63	=63
2r	1F	1c	2B-]
1F	.	.	2A
.	1C	1c	2G
2E-	.	.	[2g
=64	=64	=64	=64
1D	1r	2B-	2g]
.	.	2.A	2f
1C	1c	.	2e
.	.	4G	.
.	.	2E	[2g
=65	=65	=65	=65
1D	2B-	1F	4g]
.	.	.	4f
.	2A	.	1f
1C	1c	1G	.
.	.	.	2e
=66	=66	=66	=66
1.BB-	1.d	0B-	[0f
4AA	4c	.	.
4GG	4B-	.	.
=67	=67	=67	=67
[0FF	[0c	[0A	1f_
.	.	.	1f_
=68	=68	=68	=68
0FF]	0c]	0A]	0f]
*-	*-	*-	*-
!!!CDT: 1525/^1526/-1594/2/2
!!!OCY: Italia
!!!AGN: Mass (Paraphrase)
!!!AST: renaissance, vocal
!!!ASW: Gregorian Mass
!!!PWK: Masses, Book Mantuan II
!!!RNB: Cadence finals: C
!!!YOR: Le Opere Complete, v. 19, p. 129
!!!YOO: Rome, Italy: Fratelli Scalera
!!!END: 1992//
!!!EED: John Miller
!!!YEC: Copyright 2000, John Miller
!!!YEN: United States of America
!!!YEM: Rights to all derivative electronic formats reserved.
!!!YEM: Refer to licensing agreement for further details.
!!!YEM: This file must be accompanied by the licensing agreement.
!!!YEM: A copy of the licensing agreement may be found at http://www.music-cog.ohio-state.edu/HumdrumDatabases/Palestrina/license.txt
!!!EMD: converted to Humdrum by Bret Aarden
